X:1
T:Jaegermarsch
C:traditionell
R:volkstanz
A:Oesterreich
%%textfont Helvetica-Narrow 10pt
%%begintext align
B:"Oesterreichische Taenze", Notenteil, herausgegeben von Herbert Lager und Hermann Derschmidt, 2.Auflage, Oesterreichischer Bundesverlag, Wien, 1959
N:dort ganz in G, zweistimmig mit harmonie-buchstaben, seite 20, nr. 7
%%endtext
F:http://simonwascher.info/
Z:abc transcription Simon Wascher
M:4/4
L:1/8
K:G
D2 |\
G>G G>G GG FG | A2 F2 D3 D | A>A A>A AA GA | B2 G2 B,3 D |
B>B B>B BB AB | c4 e4 | d>d d>d dd cA | G2 B>A G2 :|
M:3/4
P:1
|: "Walzertempo"HD2 |\
G3 G G2 | (G2 F2) G2 | A4 F2 | D4 D2 |
A3 A A2 | (A2 G2) A2 | B4 G2 | B,4 D2 |
B3 B B2 | (B2 A2) B2 | c6 | e4 e2 |
d3 d d2 | (d2 c2) F2 |1 G4 A2 | B4 D2 :|\
                     [2 G4 F2 | G4 :|
P:2
M:2/4
D |\
G>G GG | G>G GG | B2 A2 | F2 zF |
A>A AA | AA^GA | c2 B2"*"G2 zD |
W: * kein taktstrich im buch
G>G GG | BA GF | E>E EE | c3 e |
d>d dd | dc BA | G2 B2 | G2 z :|
M:3/4
D2 |\
G2x"*"G G2| (G2 F2) G2 | B4 A2 | F4 D2 |
W: * punktierung fehlt im buch
A3 A A2 | (A2 G2) A2 | c4B2 | G4 D2 |
G3 G G2 | B3 A G2 | E2 E2 A2 | c4 e2 |
d3 d d2 | (d2 c2) F2 | (G4 B2) | G4 :|
P:3 %hinzugefuegt
M:4/4
D2 |\
'B>B BB BB AG | FA- A A3 D2 | c>c cc cc BA | G6 D2|\
d>d d>d dd cB | cd- d e2 edc | BdcB AcBA | G6 :|
M:3/4
|: "Walzertempo"HD2 |\
G3 G G2 | (G2 F2) G2 | A4 F2 | D4 D2 |
A3 A A2 | (A2 G2) A2 | B4 G2 | B,4 D2 |
B3 B B2 | (B2 A2) B2 | c6 | e4 e2 |
d3 d d2 | (d2 c2) F2 |1 G4 A2 | B4 D2 :|\
                     [2 G4 F2 | G4 :|
%%wordsfont Times-Italic 11pt
W:aus Simon Waschers TradArchiv
